.svelte-kit/output/client/library/social-微博.svg

<svg width="48" height="48" viewBox="0 0 48 48" fill="none" xmlns="http://www.w3.org/2000/svg">
<path d="M20.5 40C12.1 40 4 36 4 29C4 21 16.6967 10.7374 21.5 12.1258C25.5 13.2821 23 17.6258 23.5 18.1258C24 18.6258 30 15.6258 32.5 17.1258C35.2453 18.773 33 22.1258 33.5 22.6258C33.8953 23.0211 38.5 23.6258 38.5 28.1258C38.5 34.1258 31 40 20.5 40Z" fill="#E93045"/>
<path d="M31.794 28.2626C32.2341 32.5799 27.3146 36.6176 20.806 37.2811C14.2974 37.9446 8.66443 34.9826 8.22433 30.6653C7.78423 26.348 12.7037 22.3103 19.2123 21.6468C25.7209 20.9833 31.3539 23.9453 31.794 28.2626Z" fill="white"/>
<path d="M25.2393 28.7735C25.9469 31.6439 23.8143 34.6379 20.4759 35.4608C17.1376 36.2838 13.8578 34.624 13.1502 31.7536C12.4426 28.8833 14.5753 25.8893 17.9136 25.0663C21.2519 24.2434 24.5317 25.9032 25.2393 28.7735Z" fill="black"/>
<path d="M18.8987 30.1204C19.4352 31.1137 18.9335 32.4248 17.7783 33.0487C16.623 33.6726 15.2515 33.3731 14.7151 32.3798C14.1786 31.3864 14.6803 30.0754 15.8356 29.4515C16.9908 28.8276 18.3623 29.127 18.8987 30.1204Z" fill="white"/>
<ellipse cx="20.7003" cy="29.2733" rx="0.931589" ry="0.801004" transform="rotate(-28.3716 20.7003 29.2733)" fill="white"/>
<path d="M30.7399 13.0521C30.9884 13.0177 31.2421 13 31.5 13C34.5376 13 37 15.4624 37 18.5C37 18.8415 36.9689 19.1757 36.9093 19.5" stroke="#FF9933" stroke-width="2.6" stroke-linecap="round"/>
<path d="M41.9147 19.8448C41.971 19.4045 42 18.9556 42 18.5C42 12.701 37.299 8 31.5 8C31.0905 8 30.6865 8.02344 30.2892 8.06906" stroke="#FF9933" stroke-width="2.6" stroke-linecap="round"/>
</svg>

<svg width="48" height="48" fill="none" xmlns="http://www.w3.org/2000/svg"><path d="M20.5 40C12.1 40 4 36 4 29c0-8 12.697-18.263 17.5-16.874 4 1.156 1.5 5.5 2 6s6.5-2.5 9-1c2.745 1.647.5 5 1 5.5.395.395 5 1 5 5.5 0 6-7.5 11.874-18 11.874Z" fill="#E93045"/><path d="M31.794 28.263c.44 4.317-4.48 8.355-10.988 9.018-6.509.664-12.142-2.298-12.582-6.616-.44-4.317 4.48-8.355 10.988-9.018 6.509-.664 12.142 2.298 12.582 6.616Z" fill="#fff"/><path d="M25.24 28.773c.707 2.87-1.426 5.865-4.764 6.688-3.338.823-6.618-.837-7.326-3.707-.707-2.87 1.425-5.865 4.764-6.688 3.338-.823 6.618.837 7.325 3.707Z" fill="#000"/><path d="M18.899 30.12c.536.994.034 2.305-1.12 2.929-1.156.624-2.527.324-3.064-.67-.536-.993-.035-2.304 1.12-2.927 1.156-.624 2.527-.325 3.064.668Z" fill="#fff"/><ellipse cx="20.7" cy="29.273" rx=".932" ry=".801" transform="rotate(-28.372 20.7 29.273)" fill="#fff"/><path d="M30.74 13.052a5.5 5.5 0 0 1 6.17 6.448M41.915 19.845c.056-.44.085-.89.085-1.345C42 12.701 37.299 8 31.5 8c-.41 0-.814.023-1.21.07" stroke="#F93" stroke-width="2.6" stroke-linecap="round"/></svg>
